Numix-Light/scalable/actions/address-book-new-symbolic.svg

<?xml version="1.0" encoding="UTF-8" standalone="no"?>
<!-- Created with Inkscape (http://www.inkscape.org/) -->

<svg
   xmlns:dc="http://purl.org/dc/elements/1.1/"
   xmlns:cc="http://creativecommons.org/ns#"
   xmlns:rdf="http://www.w3.org/1999/02/22-rdf-syntax-ns#"
   xmlns:svg="http://www.w3.org/2000/svg"
   xmlns="http://www.w3.org/2000/svg"
   xmlns:sodipodi="http://sodipodi.sourceforge.net/DTD/sodipodi-0.dtd"
   xmlns:inkscape="http://www.inkscape.org/namespaces/inkscape"
   sodipodi:docname="address-book-new-symbolic.svg"
   inkscape:export-filename="/home/sam/dev/RESOURCES/gnome-icon-theme-symbolic/src/gnome-stencils.png"
   inkscape:export-xdpi="90"
   inkscape:export-ydpi="90"
   height="16"
   id="svg7384"
   version="1.1"
   inkscape:version="0.91 r"
   width="16">
  <metadata
     id="metadata90">
    <rdf:RDF>
      <cc:Work
         rdf:about="">
        <dc:format>image/svg+xml</dc:format>
        <dc:type
           rdf:resource="http://purl.org/dc/dcmitype/StillImage" />
        <dc:title>elementary Symbolic Icon Theme</dc:title>
      </cc:Work>
    </rdf:RDF>
  </metadata>
  <sodipodi:namedview
     inkscape:bbox-nodes="true"
     inkscape:bbox-paths="true"
     bordercolor="#666666"
     borderopacity="1"
     inkscape:current-layer="layer12"
     inkscape:cx="-0.48748576"
     inkscape:cy="9.651222"
     gridtolerance="10"
     inkscape:guide-bbox="true"
     guidetolerance="10"
     id="namedview88"
     inkscape:object-nodes="true"
     inkscape:object-paths="false"
     objecttolerance="10"
     pagecolor="#3a3b39"
     inkscape:pageopacity="1"
     inkscape:pageshadow="2"
     showborder="true"
     showgrid="true"
     showguides="true"
     inkscape:snap-bbox="true"
     inkscape:snap-bbox-edge-midpoints="true"
     inkscape:snap-bbox-midpoints="true"
     inkscape:snap-global="true"
     inkscape:snap-grids="true"
     inkscape:snap-nodes="true"
     inkscape:snap-others="false"
     inkscape:snap-to-guides="true"
     inkscape:window-height="1056"
     inkscape:window-maximized="1"
     inkscape:window-width="1920"
     inkscape:window-x="0"
     inkscape:window-y="24"
     inkscape:zoom="22.627417">
    <inkscape:grid
       dotted="false"
       empspacing="4"
       enabled="true"
       id="grid4866"
       originx="-272.00041px"
       originy="-109px"
       snapvisiblegridlinesonly="true"
       spacingx="1px"
       spacingy="1px"
       type="xygrid"
       visible="true" />
    <inkscape:grid
       color="#000000"
       dotted="true"
       empcolor="#000000"
       empopacity="0.25098039"
       empspacing="4"
       enabled="true"
       id="grid13609"
       opacity="0.1254902"
       originx="-272.00041px"
       originy="-109px"
       snapvisiblegridlinesonly="true"
       spacingx="0.5px"
       spacingy="0.5px"
       type="xygrid"
       visible="true" />
  </sodipodi:namedview>
  <title
     id="title9167">elementary Symbolic Icon Theme</title>
  <defs
     id="defs7386" />
  <g
     inkscape:groupmode="layer"
     id="layer9"
     label="status"
     inkscape:label="status"
     style="display:inline"
     transform="translate(-513.00061,-108)" />
  <g
     inkscape:groupmode="layer"
     id="layer10"
     inkscape:label="devices"
     style="display:inline"
     transform="translate(-513.00061,-108)" />
  <g
     inkscape:groupmode="layer"
     id="layer13"
     inkscape:label="places"
     style="display:inline"
     transform="translate(-513.00061,-108)" />
  <g
     inkscape:groupmode="layer"
     id="layer14"
     inkscape:label="mimes"
     transform="translate(-513.00061,-108)" />
  <g
     inkscape:groupmode="layer"
     id="layer15"
     inkscape:label="emblems"
     style="display:inline"
     transform="translate(-513.00061,-108)" />
  <g
     inkscape:groupmode="layer"
     id="g71291"
     inkscape:label="emotes"
     style="display:inline"
     transform="translate(-513.00061,-108)" />
  <g
     inkscape:groupmode="layer"
     id="layer12"
     inkscape:label="actions"
     style="display:inline"
     transform="translate(-513.00061,-108)">
    <path
       id="path2196"
       d="m 525.00061,118 0,2 -2,0 0,2 2,0 0,2 2,0 0,-2 2,0 0,-2 -2,0 0,-2 z"
       style="color:#353535;fill:#353535"
       inkscape:connector-curvature="0"
       sodipodi:nodetypes="ccccccccccccc" />
    <path
       style="fill:#353535;fill-rule:evenodd;fill-opacity:1"
       d="M 2.75 0 C 1 0 1 -0.0004363 1 1.7773438 L 1 14.222656 C 1 16.000436 1 16 2.75 16 L 11 16 L 11 15 L 9 15 L 9 12 L 8 12 L 3.5996094 12 C 3.5968094 11.69394 3.60902 11.386619 4 11.167969 C 4.87226 10.712229 5.6694606 10.283776 6.2441406 9.4472656 C 6.5550106 8.9110756 6.1578575 8.32303 5.8671875 7.875 C 5.1756175 6.93048 5.1847256 5.0158625 5.5722656 3.6328125 C 6.0559856 2.7271425 6.53934 2.2973814 8 2.2382812 C 9.46066 2.2973815 9.9440152 2.7271425 10.427734 3.6328125 C 10.815274 5.0158625 10.824384 6.93048 10.132812 7.875 C 9.8421435 8.32303 9.4449894 8.9110756 9.7558594 9.4472656 C 10.099694 9.947755 10.528436 10.296071 11 10.597656 L 11 10 L 11 9 L 15 9 L 15 1.7773438 C 15 -0.0004363 15 0 13.25 0 L 2.75 0 z "
       transform="translate(513.00061,108)"
       id="path4164" />
  </g>
</svg>

<!-- Created with Inkscape (http://www.inkscape.org/) -->
<svg xmlns="http://www.w3.org/2000/svg" viewBox="0 0 16 16">
 <g transform="translate(-513.00061,-108)" style="display:inline">
  <path d="m 525 118 0 2 -2 0 0 2 2 0 0 2 2 0 0 -2 2 0 0 -2 -2 0 0 -2 z" style="fill:#353535;color:#353535"/>
  <path d="m 2.75 0 c -1.75 0 -1.75 0 -1.75 1.777 l 0 12.445 c 0 1.778 0 1.777 1.75 1.777 l 8.25 0 l 0 -1 l -2 0 l 0 -3 l -1 0 l -4.4 0 c -0.003 -0.306 0.009 -0.613 0.4 -0.832 c 0.872 -0.456 1.669 -0.884 2.244 -1.721 c 0.311 -0.536 -0.086 -1.124 -0.377 -1.572 c -0.692 -0.945 -0.682 -2.859 -0.295 -4.242 c 0.484 -0.906 0.967 -1.335 2.428 -1.395 c 1.461 0.059 1.944 0.489 2.428 1.395 c 0.388 1.383 0.397 3.298 -0.295 4.242 c -0.291 0.448 -0.688 1.036 -0.377 1.572 c 0.344 0.5 0.773 0.849 1.244 1.15 l 0 -0.598 l 0 -1 l 4 0 l 0 -7.223 c 0 -1.778 0 -1.777 -1.75 -1.777 l -10.5 0 z" transform="translate(513.00061,108)" style="fill:#353535;fill-opacity:1;fill-rule:evenodd"/>
 </g>
</svg>
